!!!SOCIAL_FUNCTION:	bird dance songs
!!!PDT:	1956
!!!OTL: No_132_Turkey_Dance_Song.krn
!!!LANG: Non-Tone
!!!LING_GROUP: Muskogean
!!!REG: Florida
**kern
*staff1
=1-
*clefF4
*k[b-]
*M2/4
4r
8.r
16F\
=2!|:
8.c\L
16c\Jk
8.G\L
16B-\Jk
=3
8.F\L
16F\Jk
4C/
=4
(8.D/L
16C/Jk)
8C/
16r
16F\
=5
8.F\L
16F\Jk
8.G\L
16B-\Jk
=6||
*M3/4
8.F\L
16F\Jk
8C/
8r
(8.D/L
16C/Jk)
=7||
*M2/4
4F\
8.r
16F\
=8:|!
*M2/4
4F\
4r
==
*-
